build/Karasa-Jaga/scalable/status/network-vpn-disconnected-symbolic.svg

<svg height="16" width="16" xmlns="http://www.w3.org/2000/svg"><g fill="#bebebe"><g opacity=".35"><path d="m4 5v6h5.1640625v-.626953c0-.3924951.2291223-.7089845.5117187-.7089845h2.3242188v-4.6640625z"/><path d="m8 1c-1.645 0-3 1.355-3 3v2 1h1 4 1v-1-2c0-1.645-1.355-3-3-3zm0 2c.56413 0 1 .43588 1 1v1h-2v-1c0-.56412.43587-1 1-1z"/><path d="m6 13v1h-6v1h6v1h3.1640625v-3zm1 1h2v1h-2z"/><path d="m7.5 10.690493v2.309507h1v-2.309507z" stroke-width=".792656"/></g><path d="m10.50003 11h1.375l1.125 1.09375 1.09375-1.09375h1.40625v1.46875l-1.09375 1.0625 1.09375 1.0625v1.40625h-1.4375l-1.0625-1.0625-1.0625 1.0625h-1.4375v-1.40625l1.0625-1.0625-1.0625-1.0625z"/></g></svg>

<?xml version="1.0" encoding="UTF-8" standalone="no"?>
<!-- Created with Inkscape (http://www.inkscape.org/) -->

<svg
   xmlns:dc="http://purl.org/dc/elements/1.1/"
   xmlns:cc="http://creativecommons.org/ns#"
   xmlns:rdf="http://www.w3.org/1999/02/22-rdf-syntax-ns#"
   xmlns:svg="http://www.w3.org/2000/svg"
   xmlns="http://www.w3.org/2000/svg"
   xmlns:sodipodi="http://sodipodi.sourceforge.net/DTD/sodipodi-0.dtd"
   xmlns:inkscape="http://www.inkscape.org/namespaces/inkscape"
   id="svg7384"
   height="16"
   width="16"
   version="1.1"
   sodipodi:docname="network-vpn-disconnected-symbolic.svg"
   inkscape:version="0.92.2 (unknown)">
  <defs
     id="defs12" />
  <sodipodi:namedview
     pagecolor="#ffffff"
     bordercolor="#666666"
     borderopacity="1"
     objecttolerance="10"
     gridtolerance="10"
     guidetolerance="10"
     inkscape:pageopacity="0"
     inkscape:pageshadow="2"
     inkscape:window-width="1317"
     inkscape:window-height="716"
     id="namedview10"
     showgrid="false"
     inkscape:zoom="20.85965"
     inkscape:cx="7.7362414"
     inkscape:cy="3.3247145"
     inkscape:window-x="49"
     inkscape:window-y="27"
     inkscape:window-maximized="1"
     inkscape:current-layer="svg7384" />
  <metadata
     id="metadata90">
    <rdf:RDF>
      <cc:Work
         rdf:about="">
        <dc:format>image/svg+xml</dc:format>
        <dc:type
           rdf:resource="http://purl.org/dc/dcmitype/StillImage" />
        <dc:title>Gnome Symbolic Icon Theme</dc:title>
      </cc:Work>
    </rdf:RDF>
  </metadata>
  <title
     id="title9167">Gnome Symbolic Icon Theme</title>
  <g
     id="g849"
     style="opacity:0.35">
    <g
       id="g841"
       style="">
      <path
         style="color:#bebebe;fill:#bebebe"
         d="M 4 5 L 4 11 L 9.1640625 11 L 9.1640625 10.373047 C 9.1640625 9.9805519 9.3931848 9.6640625 9.6757812 9.6640625 L 12 9.6640625 L 12 5 L 4 5 z "
         id="rect13312" />
      <path
         inkscape:connector-curvature="0"
         d="M 8,1 C 6.355,1 5,2.355 5,4 v 2 1 h 1 4 1 V 6 4 C 11,2.355 9.645,1 8,1 Z M 8,3 C 8.56413,3 9,3.43588 9,4 V 5 H 7 V 4 C 7,3.43588 7.43587,3 8,3 Z"
         style="color:#bebebe;text-indent:0;text-transform:none;fill:#bebebe"
         id="path13314" />
    </g>
    <g
       id="g859"
       style="">
      <path
         id="rect4197"
         d="M 6 13 L 6 14 L 0 14 L 0 15 L 6 15 L 6 16 L 9.1640625 16 L 9.1640625 13 L 6 13 z M 7 14 L 9 14 L 9 15 L 7 15 L 7 14 z "
         style="color:#000000;isolation:auto;mix-blend-mode:normal;solid-color:#000000;fill:#bebebe;color-rendering:auto;image-rendering:auto;shape-rendering:auto" />
      <path
         style="color:#000000;isolation:auto;mix-blend-mode:normal;solid-color:#000000;fill:#bebebe;stroke-width:0.79265612;color-rendering:auto;image-rendering:auto;shape-rendering:auto"
         d="M 7.5,10.690493 V 13 h 1 v -2.309507 z"
         id="path852"
         inkscape:connector-curvature="0" />
    </g>
  </g>
  <path
     inkscape:connector-curvature="0"
     d="m 10.50003,11 h 1.375 l 1.125,1.09375 L 14.09378,11 h 1.40625 v 1.46875 l -1.09375,1.0625 1.09375,1.0625 V 16 h -1.4375 L 13.00003,14.9375 11.93753,16 h -1.4375 v -1.40625 l 1.0625,-1.0625 -1.0625,-1.0625 z"
     id="path3761-2-3-5-4-8-9-8-9-9"
     sodipodi:nodetypes="ccccccccccccccccc"
     style="color:#bebebe;display:inline;overflow:visible;visibility:visible;fill:#bebebe;fill-opacity:1;stroke:none;stroke-width:2;marker:none" />
</svg>
